src/icon/banking/card-to-card/icon_card-to-card_m_black.svg

<svg xmlns="http://www.w3.org/2000/svg" width="24" height="24" viewBox="0 0 24 24"><g fill="none" fill-rule="evenodd"><path d="M0 0h24v24H0z"/><path fill="#0B1F35" fill-rule="nonzero" d="M13.7 20l1.4 1.4-.7.7-2.6-2.6 2.6-2.6.7.7-1.4 1.4H21c.6 0 1-.4 1-1V5c0-.6-.4-1-1-1h-7V3h7c1.1 0 2 .9 2 2v13c0 1.1-.9 2-2 2h-7.3zM10.3 3L8.9 1.6l.7-.7 2.6 2.6-2.6 2.6-.7-.7L10.3 4H3c-.6 0-1 .4-1 1v13c0 .6.4 1 1 1h7v1H3c-1.1 0-2-.9-2-2V5c0-1.1.9-2 2-2h7.3z"/><path fill="#0B1F35" opacity=".3" d="M2 8h20v3H2zM5 14h4v2H5z"/></g></svg>

<svg xmlns="http://www.w3.org/2000/svg" width="24" height="24" viewBox="0 0 24 24"><g fill="none" fill-rule="evenodd"><rect width="24" height="24"/><path fill="#0B1F35" fill-rule="nonzero" d="M13.7,20 L15.1,21.4 L14.4,22.1 L11.8,19.5 L14.4,16.9 L15.1,17.6 L13.7,19 L21,19 C21.6,19 22,18.6 22,18 L22,5 C22,4.4 21.6,4 21,4 L14,4 L14,3 L21,3 C22.1,3 23,3.9 23,5 L23,18 C23,19.1 22.1,20 21,20 L13.7,20 Z M10.3,3 L8.9,1.6 L9.6,0.9 L12.2,3.5 L9.6,6.1 L8.9,5.4 L10.3,4 L3,4 C2.4,4 2,4.4 2,5 L2,18 C2,18.6 2.4,19 3,19 L10,19 L10,20 L3,20 C1.9,20 1,19.1 1,18 L1,5 C1,3.9 1.9,3 3,3 L10.3,3 Z"/><rect width="20" height="3" x="2" y="8" fill="#0B1F35" opacity=".3"/><rect width="4" height="2" x="5" y="14" fill="#0B1F35" opacity=".3"/></g></svg>
